X:1
T:There Lived Twa Sisters
M:3/4
L:1/4
K:G
 D| G/2G/2 G B| d3/2 e/2 d| G F/2E/2 F| G F/2E/2 F3/4 D/4| G/2G/2 G B|\
 d3/2 e/2 d| d dB/2-c/2| d2 d| d d d/2e/2| g2f/2-e/2| e- d3/2 B/2|\
 e d z| G3/2 F/2 E| D G A| B3/2 c/2 A| G2||
